;FLAVOR:Marlin
;TIME:2523
;Filament used: 0.858782m
;Layer height: 0.16
;MINX:86.52
;MINY:86.52
;MINZ:0.2
;MAXX:133.491
;MAXY:133.48
;MAXZ:27.76
;Generated with Cura_SteamEngine 4.4.1
M140 S60
M105
M190 S60
M104 S200
M105
M109 S200
M82 ;absolute extrusion mode
M201 X500.00 Y500.00 Z100.00 E5000.00 ;Setup machine max acceleration
M203 X500.00 Y500.00 Z10.00 E50.00 ;Setup machine max feedrate
M204 P500.00 R1000.00 T500.00 ;Setup Print/Retract/Travel acceleration
M205 X8.00 Y8.00 Z0.40 E5.00 ;Setup Jerk
M220 S100 ;Reset Feedrate
M221 S100 ;Reset Flowrate

G28 ;Home

G92 E0 ;Reset Extruder
G1 Z2.0 F3000 ;Move Z Axis up
G1 X10.1 Y20 Z0.28 F5000.0 ;Move to start position
G1 X10.1 Y200.0 Z0.28 F1500.0 E15 ;Draw the first line
G1 X10.4 Y200.0 Z0.28 F5000.0 ;Move to side a little
G1 X10.4 Y20 Z0.28 F1500.0 E30 ;Draw the second line
G92 E0 ;Reset Extruder
G1 Z2.0 F3000 ;Move Z Axis up

G92 E0
G92 E0
G1 F1500 E-6.5
;LAYER_COUNT:206
;LAYER:0
M107
G0 F6000 X93.556 Y93.226 Z0.2
;TYPE:SKIRT
G1 F1500 E0
G1 F1200 X93.904 Y92.891 E0.01607
G1 X94.25 Y92.572 E0.03172
G1 X94.516 Y92.337 E0.04352
G1 X94.939 Y91.982 E0.06189
G1 X95.76 Y91.327 E0.09682
G1 X96.505 Y90.783 E0.1275
G1 X97.426 Y90.167 E0.16436
G1 X98.041 Y89.784 E0.18845
G1 X98.448 Y89.549 E0.20409
G1 X99.055 Y89.223 E0.227
G1 X99.808 Y88.849 E0.25497
G1 X100.237 Y88.647 E0.27074
G1 X100.942 Y88.334 E0.29639
G1 X101.789 Y88 E0.32668
G1 X102.553 Y87.734 E0.35358
G1 X103.01 Y87.586 E0.36956
G1 X103.767 Y87.359 E0.39585
G1 X104.642 Y87.135 E0.42589
G1 X105.645 Y86.922 E0.45999
G1 X106.585 Y86.765 E0.49169
G1 X107.632 Y86.636 E0.52677
G1 X108.537 Y86.562 E0.55698
G1 X109.586 Y86.52 E0.59189
G1 X110.528 Y86.522 E0.62322
G1 X111.622 Y86.572 E0.65965
G1 X112.574 Y86.657 E0.69144
G1 X113.609 Y86.795 E0.72617
G1 X114.522 Y86.957 E0.75701
G1 X115.575 Y87.189 E0.79287
G1 X116.475 Y87.427 E0.82383
G1 X117.237 Y87.664 E0.85038
G1 X117.687 Y87.815 E0.86616
G1 X118.439 Y88.085 E0.89274
G1 X119.309 Y88.44 E0.92399
G1 X120.279 Y88.885 E0.95949
G1 X121.116 Y89.313 E0.99075
G1 X122.03 Y89.831 E1.0257
G1 X122.808 Y90.316 E1.05619
G1 X123.684 Y90.914 E1.09147
G1 X124.456 Y91.492 E1.12354
G1 X125.061 Y91.988 E1.14956
G1 X125.401 Y92.279 E1.16445
G1 X125.993 Y92.806 E1.19081
G1 X126.292 Y93.082 E1.20434
G1 X126.462 Y93.245 E1.21218
G1 X126.774 Y93.556 E1.22683
G1 X127.109 Y93.904 E1.24289
G1 X127.428 Y94.25 E1.25855
G1 X127.663 Y94.516 E1.27035
G1 X128.018 Y94.939 E1.28872
G1 X128.673 Y95.76 E1.32365
G1 X129.217 Y96.505 E1.35433
G1 X129.833 Y97.426 E1.39119
G1 X130.215 Y98.038 E1.41518
G1 X130.449 Y98.443 E1.43074
G1 X130.776 Y99.053 E1.45376
G1 X131.151 Y99.808 E1.4818
G1 X131.348 Y100.227 E1.4972
G1 X131.661 Y100.93 E1.52279
G1 X132.003 Y101.796 E1.55376
G1 X132.269 Y102.562 E1.58073
G1 X132.414 Y103.01 E1.59639
G1 X132.641 Y103.767 E1.62268
G1 X132.865 Y104.642 E1.65272
G1 X133.078 Y105.645 E1.68682
G1 X133.235 Y106.584 E1.71848
G1 X133.364 Y107.63 E1.75354
G1 X133.436 Y108.475 E1.78175
G1 X133.478 Y109.396 E1.81241
G1 X133.489 Y109.819 E1.82648
G1 X133.491 Y110.102 E1.8359
G1 X133.484 Y110.565 E1.8513
G1 X133.465 Y111.108 E1.86937
G1 X133.436 Y111.614 E1.88623
G1 X133.403 Y112.02 E1.89977
G1 X133.341 Y112.595 E1.91901
G1 X133.203 Y113.621 E1.95344
G1 X133.043 Y114.522 E1.98388
G1 X132.811 Y115.575 E2.01974
G1 X132.573 Y116.475 E2.0507
G1 X132.336 Y117.237 E2.07725
G1 X132.186 Y117.684 E2.09293
G1 X131.917 Y118.434 E2.11943
G1 X131.563 Y119.302 E2.15061
G1 X131.119 Y120.271 E2.18606
G1 X130.688 Y121.115 E2.21758
G1 X130.168 Y122.032 E2.25264
G1 X129.684 Y122.808 E2.28306
G1 X129.086 Y123.684 E2.31834
G1 X128.508 Y124.456 E2.35041
G1 X128.012 Y125.061 E2.37643
G1 X127.721 Y125.401 E2.39132
G1 X127.194 Y125.993 E2.41768
G1 X126.918 Y126.292 E2.43121
G1 X126.755 Y126.462 E2.43905
G1 X126.444 Y126.774 E2.4537
G1 X126.096 Y127.109 E2.46976
G1 X125.75 Y127.428 E2.48542
G1 X125.484 Y127.663 E2.49722
G1 X125.061 Y128.018 E2.51559
G1 X124.24 Y128.673 E2.55052
G1 X123.495 Y129.217 E2.5812
G1 X122.574 Y129.833 E2.61806
G1 X121.962 Y130.215 E2.64205
G1 X121.557 Y130.449 E2.65761
G1 X120.947 Y130.776 E2.68063
G1 X120.192 Y131.151 E2.70867
G1 X119.763 Y131.353 E2.72444
G1 X119.058 Y131.666 E2.75009
G1 X118.211 Y132 E2.78038
G1 X117.447 Y132.266 E2.80728
G1 X116.984 Y132.416 E2.82347
G1 X116.229 Y132.642 E2.84968
G1 X115.366 Y132.863 E2.87931
G1 X114.361 Y133.077 E2.91349
G1 X113.415 Y133.235 E2.94539
G1 X112.368 Y133.364 E2.98047
G1 X111.463 Y133.438 E3.01068
G1 X110.414 Y133.48 E3.04559
G1 X109.471 Y133.478 E3.07696
G1 X108.378 Y133.428 E3.11335
G1 X107.429 Y133.343 E3.14504
G1 X106.393 Y133.205 E3.1798
G1 X105.478 Y133.043 E3.21071
G1 X104.425 Y132.811 E3.24657
G1 X103.525 Y132.573 E3.27753
G1 X102.763 Y132.336 E3.30408
G1 X102.313 Y132.185 E3.31986
G1 X101.561 Y131.915 E3.34644
G1 X100.691 Y131.56 E3.37769
G1 X99.719 Y131.114 E3.41326
G1 X98.881 Y130.685 E3.44457
G1 X97.969 Y130.168 E3.47944
G1 X97.19 Y129.682 E3.50998
G1 X96.313 Y129.083 E3.5453
G1 X95.541 Y128.505 E3.57738
G1 X94.935 Y128.008 E3.60345
G1 X94.595 Y127.718 E3.61831
G1 X94.001 Y127.189 E3.64476
G1 X93.708 Y126.918 E3.65804
G1 X93.542 Y126.759 E3.66568
G1 X93.227 Y126.444 E3.6805
G1 X92.891 Y126.095 E3.69661
G1 X92.57 Y125.747 E3.71236
G1 X92.336 Y125.482 E3.72412
G1 X91.982 Y125.061 E3.74241
G1 X91.323 Y124.235 E3.77756
G1 X90.776 Y123.486 E3.80841
G1 X90.164 Y122.57 E3.84505
G1 X89.781 Y121.954 E3.86917
G1 X89.544 Y121.543 E3.88495
G1 X89.224 Y120.946 E3.90748
G1 X88.851 Y120.196 E3.93534
G1 X88.646 Y119.762 E3.95131
G1 X88.333 Y119.057 E3.97696
G1 X87.996 Y118.202 E4.00753
G1 X87.731 Y117.439 E4.03439
G1 X87.586 Y116.99 E4.05008
G1 X87.359 Y116.233 E4.07637
G1 X87.135 Y115.358 E4.10641
G1 X86.922 Y114.355 E4.14052
G1 X86.765 Y113.415 E4.17221
G1 X86.636 Y112.368 E4.2073
G1 X86.562 Y111.464 E4.23747
G1 X86.52 Y110.417 E4.27232
G1 X86.523 Y109.469 E4.30385
G1 X86.574 Y108.364 E4.34064
G1 X86.659 Y107.415 E4.37233
G1 X86.796 Y106.389 E4.40676
G1 X86.957 Y105.478 E4.43753
G1 X87.189 Y104.425 E4.47339
G1 X87.427 Y103.525 E4.50435
G1 X87.664 Y102.763 E4.5309
G1 X87.814 Y102.316 E4.54658
G1 X88.083 Y101.566 E4.57308
G1 X88.439 Y100.693 E4.60444
G1 X88.885 Y99.721 E4.64001
G1 X89.313 Y98.884 E4.67127
G1 X89.831 Y97.97 E4.70622
G1 X90.324 Y97.181 E4.73716
G1 X90.925 Y96.303 E4.77255
G1 X91.486 Y95.553 E4.8037
G1 X91.979 Y94.95 E4.82961
G1 X92.279 Y94.599 E4.84496
G1 X92.806 Y94.007 E4.87133
G1 X93.082 Y93.708 E4.88486
G1 X93.245 Y93.538 E4.89269
G1 X93.556 Y93.226 E4.90734
G0 F6000 X93.834 Y93.514
G1 F1200 X94.182 Y93.179 E4.92341
G1 X94.515 Y92.872 E4.93847
G1 X94.781 Y92.637 E4.95028
G1 X95.188 Y92.295 E4.96796
G1 X96.009 Y91.64 E5.00289
G1 X96.727 Y91.115 E5.03248
G1 X97.648 Y90.499 E5.06933
G1 X98.241 Y90.13 E5.09256
G1 X98.648 Y89.895 E5.10819
G1 X99.233 Y89.581 E5.13027
G1 X99.986 Y89.207 E5.15824
G1 X100.4 Y89.013 E5.17344
G1 X101.105 Y88.7 E5.1991
G1 X101.921 Y88.377 E5.22829
G1 X102.685 Y88.111 E5.2552
G1 X103.125 Y87.969 E5.27057
G1 X103.882 Y87.742 E5.29686
G1 X104.725 Y87.526 E5.3258
G1 X105.728 Y87.313 E5.35991
G1 X106.634 Y87.162 E5.39046
G1 X107.681 Y87.033 E5.42554
G1 X108.553 Y86.961 E5.45465
G1 X109.602 Y86.919 E5.48956
G1 X110.51 Y86.922 E5.51976
G1 X111.604 Y86.972 E5.55619
G1 X112.521 Y87.054 E5.58681
G1 X113.556 Y87.192 E5.62154
G1 X114.436 Y87.347 E5.65126
G1 X115.489 Y87.579 E5.68712
G1 X116.356 Y87.809 E5.71695
G1 X117.118 Y88.046 E5.7435
G1 X117.552 Y88.192 E5.75873
G1 X118.304 Y88.462 E5.7853
G1 X119.142 Y88.803 E5.81539
G1 X120.112 Y89.248 E5.85089
G1 X120.918 Y89.661 E5.88101
G1 X121.832 Y90.179 E5.91595
G1 X122.582 Y90.646 E5.94534
G1 X123.458 Y91.244 E5.98061
G1 X124.202 Y91.802 E6.01155
G1 X124.807 Y92.298 E6.03757
G1 X125.135 Y92.578 E6.05191
G1 X125.727 Y93.105 E6.07827
G1 X126.015 Y93.371 E6.09131
G1 X126.185 Y93.534 E6.09915
G1 X126.486 Y93.834 E6.11328
G1 X126.821 Y94.182 E6.12935
G1 X127.128 Y94.515 E6.14441
G1 X127.363 Y94.781 E6.15622
G1 X127.705 Y95.188 E6.1739
G1 X128.36 Y96.009 E6.20883
G1 X128.885 Y96.727 E6.23841
G1 X129.501 Y97.648 E6.27527
G1 X129.868 Y98.238 E6.29838
G1 X130.102 Y98.643 E6.31393
G1 X130.417 Y99.231 E6.33612
G1 X130.792 Y99.986 E6.36416
G1 X130.983 Y100.39 E6.37902
G1 X131.296 Y101.093 E6.40462
G1 X131.625 Y101.927 E6.43443
G1 X131.891 Y102.693 E6.4614
G1 X132.031 Y103.125 E6.47651
G1 X132.258 Y103.882 E6.50279
G1 X132.474 Y104.725 E6.53174
G1 X132.687 Y105.728 E6.56584
G1 X132.838 Y106.633 E6.59636
G1 X132.967 Y107.679 E6.63141
G1 X133.036 Y108.493 E6.65858
G1 X133.078 Y109.414 E6.68925
G1 X133.089 Y109.822 E6.70282
G1 X133.091 Y110.105 E6.71224
G1 X133.085 Y110.551 E6.72707
G1 X133.066 Y111.094 E6.74514
G1 X133.037 Y111.582 E6.7614
G1 X133.004 Y111.988 E6.77495
G1 X132.944 Y112.542 E6.79348
G1 X132.806 Y113.568 E6.82792
G1 X132.653 Y114.436 E6.85723
G1 X132.421 Y115.489 E6.89309
G1 X132.191 Y116.356 E6.92293
G1 X131.954 Y117.118 E6.94947
G1 X131.81 Y117.549 E6.96458
G1 X131.541 Y118.299 E6.99108
G1 X131.2 Y119.136 E7.02115
G1 X130.756 Y120.105 E7.0566
G1 X130.34 Y120.918 E7.08697
G1 X129.82 Y121.835 E7.12203
G1 X129.354 Y122.582 E7.15132
G1 X128.756 Y123.458 E7.18659
G1 X128.198 Y124.202 E7.21753
G1 X127.702 Y124.807 E7.24355
G1 X127.422 Y125.135 E7.25789
G1 X126.895 Y125.727 E7.28425
G1 X126.629 Y126.015 E7.29729
G1 X126.466 Y126.185 E7.30512
G1 X126.166 Y126.486 E7.31926
G1 X125.818 Y126.821 E7.33533
G1 X125.485 Y127.128 E7.35039
G1 X125.219 Y127.363 E7.36219
G1 X124.812 Y127.705 E7.37988
G1 X123.991 Y128.36 E7.41481
G1 X123.273 Y128.885 E7.44439
G1 X122.352 Y129.501 E7.48124
G1 X121.762 Y129.868 E7.50435
G1 X121.357 Y130.102 E7.51991
G1 X120.769 Y130.417 E7.5421
G1 X120.014 Y130.792 E7.57014
G1 X119.6 Y130.987 E7.58536
G1 X118.895 Y131.3 E7.61101
G1 X118.079 Y131.623 E7.6402
G1 X117.315 Y131.889 E7.66711
G1 X116.87 Y132.033 E7.68267
G1 X116.115 Y132.259 E7.70888
G1 X115.283 Y132.472 E7.73744
G1 X114.278 Y132.686 E7.77162
G1 X113.366 Y132.838 E7.80237
G1 X112.319 Y132.967 E7.83746
G1 X111.447 Y133.039 E7.86656
G1 X110.398 Y133.081 E7.90148
G1 X109.49 Y133.078 E7.93168
G1 X108.397 Y133.028 E7.96807
G1 X107.481 Y132.946 E7.99866
G1 X106.445 Y132.808 E8.03342
G1 X105.564 Y132.653 E8.06317
G1 X104.511 Y132.421 E8.09903
G1 X103.644 Y132.191 E8.12887
G1 X102.882 Y131.954 E8.15541
G1 X102.448 Y131.808 E8.17064
G1 X101.696 Y131.538 E8.19721
G1 X100.857 Y131.196 E8.22735
G1 X99.885 Y130.75 E8.26292
G1 X99.079 Y130.337 E8.29304
G1 X98.167 Y129.82 E8.32791
G1 X97.416 Y129.352 E8.35734
G1 X96.539 Y128.753 E8.39266
G1 X95.795 Y128.196 E8.42357
G1 X95.189 Y127.699 E8.44964
G1 X94.861 Y127.419 E8.46399
G1 X94.267 Y126.89 E8.49044
G1 X93.985 Y126.629 E8.50322
G1 X93.819 Y126.47 E8.51087
G1 X93.515 Y126.167 E8.52514
G1 X93.179 Y125.818 E8.54126
G1 X92.869 Y125.482 E8.55646
G1 X92.635 Y125.217 E8.56822
G1 X92.295 Y124.812 E8.58581
G1 X91.636 Y123.986 E8.62095
G1 X91.108 Y123.264 E8.6507
G1 X90.496 Y122.348 E8.68734
G1 X90.127 Y121.754 E8.7106
G1 X89.89 Y121.343 E8.72638
G1 X89.582 Y120.768 E8.74808
G1 X89.209 Y120.018 E8.77594
G1 X89.012 Y119.599 E8.79134
G1 X88.699 Y118.894 E8.81699
G1 X88.374 Y118.071 E8.84642
G1 X88.109 Y117.308 E8.87329
G1 X87.969 Y116.875 E8.88842
G1 X87.742 Y116.118 E8.91471
G1 X87.526 Y115.275 E8.94365
G1 X87.313 Y114.272 E8.97775
G1 X87.162 Y113.366 E9.0083
G1 X87.033 Y112.319 E9.04339
G1 X86.962 Y111.448 E9.07246
G1 X86.92 Y110.401 E9.10731
G1 X86.922 Y109.487 E9.13771
G1 X86.973 Y108.382 E9.1745
G1 X87.055 Y107.468 E9.20502
G1 X87.192 Y106.442 E9.23945
G1 X87.347 Y105.564 E9.2691
G1 X87.579 Y104.511 E9.30497
G1 X87.809 Y103.644 E9.3348
G1 X88.046 Y102.882 E9.36134
G1 X88.19 Y102.451 E9.37646
G1 X88.459 Y101.701 E9.40296
G1 X88.803 Y100.859 E9.43321
G1 X89.249 Y99.887 E9.46878
G1 X89.661 Y99.082 E9.49886
G1 X90.179 Y98.168 E9.5338
G1 X90.654 Y97.407 E9.56363
G1 X91.255 Y96.529 E9.59902
G1 X91.796 Y95.807 E9.62903
G1 X92.289 Y95.204 E9.65494
G1 X92.578 Y94.865 E9.66975
G1 X93.105 Y94.273 E9.69611
G1 X93.371 Y93.985 E9.70915
G1 X93.534 Y93.815 E9.71699
G1 X93.834 Y93.514 E9.73112
G0 F6000 X94.111 Y93.803
G1 F1200 X94.459 Y93.468 E9.74719
G1 X94.78 Y93.172 E9.76171
G1 X95.046 Y92.937 E9.77352
G1 X95.438 Y92.608 E9.79054
G1 X96.259 Y91.953 E9.82547
G1 X96.949 Y91.448 E9.85391
G1 X97.87 Y90.832 E9.89076
G1 X98.441 Y90.477 E9.91312
G1 X98.848 Y90.242 E9.92876
G1 X99.411 Y89.94 E9.95
G1 X100.164 Y89.566 E9.97797
G1 X100.562 Y89.378 E9.99261
G1 X101.267 Y89.065 E10.01826
G1 X102.052 Y88.755 E10.04634
G1 X102.816 Y88.489 E10.07324
G1 X103.24 Y88.352 E10.08806
G1 X103.997 Y88.125 E10.11435
G1 X104.808 Y87.918 E10.14219
G1 X105.811 Y87.705 E10.17629
G1 X106.683 Y87.559 E10.2057
G1 X107.73 Y87.43 E10.24078
G1 X108.569 Y87.361 E10.26878
G1 X109.618 Y87.319 E10.3037
G1 X110.492 Y87.322 E10.33277
G1 X111.586 Y87.372 E10.3692
G1 X112.468 Y87.45 E10.39865
G1 X113.503 Y87.588 E10.43337
G1 X114.35 Y87.738 E10.46198
G1 X115.403 Y87.97 E10.49785
G1 X116.237 Y88.191 E10.52654
G1 X116.999 Y88.428 E10.55309
G1 X117.417 Y88.568 E10.56775
G1 X118.169 Y88.838 E10.59432
G1 X118.975 Y89.167 E10.62328
G1 X119.945 Y89.612 E10.65877
G1 X120.721 Y90.009 E10.68776
G1 X121.635 Y90.527 E10.72271
G1 X122.357 Y90.977 E10.751
G1 X123.233 Y91.575 E10.78628
G1 X123.949 Y92.111 E10.81603
G1 X124.554 Y92.607 E10.84205
G1 X124.869 Y92.876 E10.85583
G1 X125.461 Y93.403 E10.88219
G1 X125.738 Y93.66 E10.89475
G1 X125.908 Y93.823 E10.90259
G1 X126.197 Y94.111 E10.91616
G1 X126.532 Y94.459 E10.93222
G1 X126.828 Y94.78 E10.94675
G1 X127.063 Y95.046 E10.95855
G1 X127.392 Y95.438 E10.97557
G1 X128.047 Y96.259 E11.01051
G1 X128.552 Y96.949 E11.03895
G1 X129.168 Y97.87 E11.0758
G1 X129.522 Y98.438 E11.09806
G1 X129.756 Y98.843 E11.11362
G1 X130.059 Y99.409 E11.13497
G1 X130.434 Y100.164 E11.16301
G1 X130.617 Y100.552 E11.17727
G1 X130.93 Y101.255 E11.20287
G1 X131.248 Y102.058 E11.2316
G1 X131.514 Y102.824 E11.25857
G1 X131.648 Y103.24 E11.2731
G1 X131.875 Y103.997 E11.29939
G1 X132.082 Y104.808 E11.32723
G1 X132.295 Y105.811 E11.36133
G1 X132.441 Y106.682 E11.3907
G1 X132.57 Y107.728 E11.42576
G1 X132.636 Y108.511 E11.45189
G1 X132.678 Y109.432 E11.48256
G1 X132.689 Y109.825 E11.49563
G1 X132.691 Y110.108 E11.50505
G1 X132.685 Y110.537 E11.51932
G1 X132.666 Y111.08 E11.53739
G1 X132.638 Y111.549 E11.55301
G1 X132.605 Y111.955 E11.56656
G1 X132.548 Y112.489 E11.58442
G1 X132.41 Y113.515 E11.61886
G1 X132.262 Y114.35 E11.64706
G1 X132.03 Y115.403 E11.68292
G1 X131.809 Y116.237 E11.71162
G1 X131.572 Y116.999 E11.73816
G1 X131.433 Y117.414 E11.75272
G1 X131.164 Y118.164 E11.77922
G1 X130.836 Y118.969 E11.80813
G1 X130.392 Y119.938 E11.84358
G1 X129.992 Y120.72 E11.8728
G1 X129.472 Y121.637 E11.90786
G1 X129.023 Y122.357 E11.93608
G1 X128.425 Y123.233 E11.97136
G1 X127.889 Y123.949 E12.00111
G1 X127.393 Y124.554 E12.02713
G1 X127.124 Y124.869 E12.0409
G1 X126.597 Y125.461 E12.06727
G1 X126.34 Y125.738 E12.07983
G1 X126.177 Y125.908 E12.08767
G1 X125.889 Y126.197 E12.10124
G1 X125.541 Y126.532 E12.1173
G1 X125.22 Y126.828 E12.13183
G1 X124.954 Y127.063 E12.14363
G1 X124.562 Y127.392 E12.16065
G1 X123.741 Y128.047 E12.19558
G1 X123.051 Y128.552 E12.22402
G1 X122.13 Y129.168 E12.26088
G1 X121.562 Y129.522 E12.28314
G1 X121.157 Y129.756 E12.29869
G1 X120.591 Y130.059 E12.32005
G1 X119.836 Y130.434 E12.34809
G1 X119.438 Y130.622 E12.36273
G1 X118.733 Y130.935 E12.38838
G1 X117.948 Y131.245 E12.41645
G1 X117.184 Y131.511 E12.44336
G1 X116.755 Y131.65 E12.45836
G1 X116 Y131.876 E12.48457
G1 X115.199 Y132.08 E12.51206
G1 X114.194 Y132.294 E12.54624
G1 X113.317 Y132.441 E12.57581
G1 X112.27 Y132.57 E12.6109
G1 X111.431 Y132.639 E12.6389
G1 X110.382 Y132.681 E12.67382
G1 X109.508 Y132.678 E12.70289
G1 X108.415 Y132.628 E12.73928
G1 X107.534 Y132.55 E12.7687
G1 X106.498 Y132.412 E12.80346
G1 X105.65 Y132.262 E12.8321
G1 X104.597 Y132.03 E12.86796
G1 X103.763 Y131.809 E12.89666
G1 X103.001 Y131.572 E12.9232
G1 X102.583 Y131.432 E12.93786
G1 X101.831 Y131.162 E12.96444
G1 X101.024 Y130.833 E12.99342
G1 X100.052 Y130.387 E13.02899
G1 X99.276 Y129.989 E13.058
G1 X98.364 Y129.472 E13.09287
G1 X97.641 Y129.022 E13.12119
